{
  "compressionlevel": -1,
  "height": 12,
  "infinite": false,
  "layers": [
    {
      "data": [
        9,
        9,
        9,
        9,
        9,
        9,
        9,
        9,
        9,
        9,
        9,
        9,
        9,
        9,
        9,
        9,
        9,
        9,
        9,
        9,
        9,
        9,
        9,
        9,
        9,
        9,
        9,
        9,
        9,
        9,
        9,
        9,
        9,
        9,
        9,
        9,
        9,
        9,
        9,
        9,
        9,
        9,
        9,
        9,
        9,
        9,
        9,
        9,
        9,
        9,
        9,
        9,
        9,
        9,
        9,
        9,
        9,
        9,
        9,
        9,
        9,
        9,
        9,
        9,
        9,
        9,
        9,
        9,
        9,
        9,
        9,
        9,
        9,
        9,
        9,
        9,
        9,
        9,
        9,
        9,
        9,
        9,
        9,
        9,
        9,
        9,
        9,
        9,
        9,
        9,
        9,
        9,
        9,
        9,
        9,
        9,
        9,
        9,
        9,
        9,
        9,
        9,
        9,
        9,
        9,
        9,
        9,
        9,
        9,
        9,
        9,
        9,
        9,
        9,
        9,
        9,
        9,
        9,
        9,
        9,
        9,
        9,
        9,
        9,
        9,
        9,
        9,
        9,
        9,
        9,
        9,
        9,
        9,
        9,
        9,
        9,
        9,
        9,
        9,
        9,
        9,
        9,
        9,
        9,
        9,
        9,
        9,
        9,
        9,
        9,
        9,
        9,
        9,
        9,
        9,
        9,
        9,
        9,
        9,
        9,
        9,
        9,
        9,
        9,
        9,
        9,
        9,
        9
      ],
      "height": 12,
      "id": 1,
      "name": "ground",
      "opacity": 1,
      "type": "tilelayer",
      "visible": true,
      "width": 14,
      "x": 0,
      "y": 0
    },
    {
      "data": [
        19,
        20,
        21,
        22,
        23,
        24,
        25,
        61,
        62,
        63,
        64,
        65,
        66,
        67,
        26,
        27,
        28,
        29,
        30,
        31,
        32,
        68,
        69,
        70,
        71,
        72,
        73,
        74,
        33,
        34,
        35,
        36,
        37,
        38,
        39,
        75,
        76,
        77,
        78,
        79,
        80,
        81,
        40,
        41,
        42,
        43,
        44,
        45,
        46,
        82,
        83,
        84,
        85,
        86,
        87,
        88,
        47,
        48,
        49,
        50,
        51,
        52,
        53,
        89,
        90,
        91,
        92,
        93,
        94,
        95,
        54,
        55,
        56,
        57,
        58,
        59,
        187,
        188,
        189,
        98,
        99,
        100,
        101,
        102,
        145,
        146,
        147,
        148,
        149,
        150,
        190,
        191,
        192,
        105,
        106,
        107,
        108,
        109,
        152,
        153,
        154,
        155,
        156,
        157,
        193,
        194,
        195,
        112,
        113,
        114,
        115,
        116,
        159,
        160,
        161,
        162,
        163,
        164,
        196,
        197,
        198,
        119,
        120,
        121,
        122,
        123,
        166,
        167,
        168,
        169,
        170,
        171,
        172,
        124,
        125,
        126,
        127,
        128,
        129,
        130,
        173,
        174,
        175,
        176,
        177,
        178,
        179,
        131,
        132,
        133,
        134,
        135,
        136,
        137,
        180,
        181,
        182,
        183,
        184,
        185,
        186,
        138,
        139,
        140,
        141,
        142,
        143,
        144
      ],
      "height": 12,
      "id": 2,
      "name": "objects",
      "opacity": 1,
      "type": "tilelayer",
      "visible": true,
      "width": 14,
      "x": 0,
      "y": 0
    }
  ],
  "nextlayerid": 3,
  "nextobjectid": 1,
  "orientation": "orthogonal",
  "renderorder": "right-down",
  "tiledversion": "1.10.2",
  "tileheight": 48,
  "tilesets": [
    {
      "firstgid": 1,
      "source": "../tilesheets/roads.tsj"
    }
  ],
  "tilewidth": 48,
  "type": "map",
  "version": "1.10",
  "width": 14
}